src/symbols/warning/26A0.svg

<svg id="emoji" version="1.1" viewBox="0 0 72 72" xmlns="http://www.w3.org/2000/svg">
 <g id="grid">
  <path d="M68,4V68H4V4H68m4-4H0V72H72V0Z" fill="#b3b3b3"/>
  <path d="m12.923 10.958h46.154a1.9231 1.9231 0 0 1 1.9231 1.9231v46.154a1.9231 1.9231 0 0 1-1.9231 1.9231h-46.154a1.9231 1.9231 0 0 1-1.9231-1.9231v-46.154a1.923 1.923 0 0 1 1.923-1.923z" fill="none" stroke="#00a5ff" stroke-miterlimit="10" stroke-width=".1"/>
  <rect x="16" y="4" width="40" height="64" rx="2.2537" fill="none" stroke="#00a5ff" stroke-miterlimit="10" stroke-width=".1"/>
  <rect transform="translate(72) rotate(90)" x="16" y="4" width="40" height="64" rx="2.2537" fill="none" stroke="#00a5ff" stroke-miterlimit="10" stroke-width=".1"/>
  <circle cx="36" cy="36" r="29" fill="none" stroke="#00a5ff" stroke-miterlimit="10" stroke-width=".1"/>
 </g>
 <g id="color">
  <path d="m32.522 13.005c0.6977-1.2046 1.9862-2.0244 3.4778-2.0244s2.7801 0.8198 3.4778 2.0244l20.968 41.935c0.3433 0.5938 0.5544 1.2735 0.5544 2.0082 0 2.2272-1.8051 4.0323-4.0323 4.0323l-41.935 0.0173c-2.2272 0-4.0323-1.8059-4.0323-4.0322 0-0.7356 0.211-1.4145 0.5544-2.0083l20.968-41.952" fill="#fcea2b" stroke-linecap="round" stroke-linejoin="round" stroke-miterlimit="10" stroke-width="2"/>
 </g>
 <g id="line">
  <path d="m32.522 13.005c0.6977-1.2046 1.9862-2.0244 3.4778-2.0244s2.7801 0.8198 3.4778 2.0244l20.968 41.935c0.3433 0.5938 0.5544 1.2735 0.5544 2.0082 0 2.2272-1.8051 4.0323-4.0323 4.0323l-41.935 0.0173c-2.2272 0-4.0323-1.8059-4.0323-4.0322 0-0.7356 0.211-1.4145 0.5544-2.0083l20.968-41.952" fill="none" stroke="#000" stroke-linecap="round" stroke-linejoin="round" stroke-miterlimit="10" stroke-width="2"/>
  <path d="m36 21.279c-1.4312 0-2.6133 1.182-2.6133 2.6133v23.379c0 1.4312 1.182 2.6133 2.6133 2.6133s2.6133-1.182 2.6133-2.6133v-23.379c0-1.4312-1.182-2.6133-2.6133-2.6133z" style="stop-color:#000000;stroke-linecap:round;stroke-linejoin:round;stroke-miterlimit:10"/>
  <path d="m36 51.916c-1.4312 0-2.6133 1.1821-2.6133 2.6133s1.1821 2.6133 2.6133 2.6133 2.6133-1.1821 2.6133-2.6133-1.1821-2.6133-2.6133-2.6133z" style="stop-color:#000000;stroke-linecap:round;stroke-linejoin:round;stroke-miterlimit:10"/>
 </g>
</svg>

<svg id="emoji" viewBox="0 0 72 72" xmlns="http://www.w3.org/2000/svg">
  <g id="grid">
    <path fill="#b3b3b3" d="M68,4V68H4V4H68m4-4H0V72H72V0Z"/>
    <path fill="none" stroke="#00a5ff" stroke-miterlimit="10" stroke-width="0.1" d="M12.923,10.9583H59.0769A1.9231,1.9231,0,0,1,61,12.8814V59.0352a1.9231,1.9231,0,0,1-1.9231,1.9231H12.9231A1.9231,1.9231,0,0,1,11,59.0352V12.8813A1.923,1.923,0,0,1,12.923,10.9583Z"/>
    <rect x="16" y="4" rx="2.2537" width="40" height="64" fill="none" stroke="#00a5ff" stroke-miterlimit="10" stroke-width="0.1"/>
    <rect x="16" y="4" rx="2.2537" width="40" height="64" transform="translate(72) rotate(90)" fill="none" stroke="#00a5ff" stroke-miterlimit="10" stroke-width="0.1"/>
    <circle cx="36" cy="36" r="29" fill="none" stroke="#00a5ff" stroke-miterlimit="10" stroke-width="0.1"/>
  </g>
  <g id="color">
    <path fill="#fcea2b" stroke="none" stroke-linecap="round" stroke-linejoin="round" stroke-miterlimit="10" stroke-width="2" d="M32.5222,13.005c0.6977-1.2046,1.9862-2.0244,3.4778-2.0244c1.4916,0,2.7801,0.8198,3.4778,2.0244l20.9678,41.9351 C60.7889,55.5339,61,56.2136,61,56.9483c0,2.2272-1.8051,4.0323-4.0323,4.0323l-41.9354,0.0173 C12.8051,60.9979,11,59.192,11,56.9657c0-0.7356,0.211-1.4145,0.5544-2.0083L32.5222,13.005"/>
    <path fill="#FFFFFF" stroke="none" stroke-linecap="round" stroke-linejoin="round" stroke-miterlimit="10" stroke-width="2" d="M37.6129,47.2709c0,0.8907-0.7222,1.6129-1.6129,1.6129c-0.8907,0-1.6129-0.7222-1.6129-1.6129V23.8925 c0-0.8907,0.7222-1.6129,1.6129-1.6129c0.8907,0,1.6129,0.7222,1.6129,1.6129V47.2709z"/>
    <circle cx="36" cy="54.529" r="1.6129" fill="#FFFFFF" stroke="none" stroke-linecap="round" stroke-linejoin="round" stroke-miterlimit="10" stroke-width="2"/>
  </g>
  <g id="hair"/>
  <g id="skin"/>
  <g id="skin-shadow"/>
  <g id="line">
    <path fill="none" stroke="#000000" stroke-linecap="round" stroke-linejoin="round" stroke-miterlimit="10" stroke-width="2" d="M32.5222,13.005c0.6977-1.2046,1.9862-2.0244,3.4778-2.0244c1.4916,0,2.7801,0.8198,3.4778,2.0244l20.9678,41.9351 C60.7889,55.5339,61,56.2136,61,56.9483c0,2.2272-1.8051,4.0323-4.0323,4.0323l-41.9354,0.0173 C12.8051,60.9979,11,59.192,11,56.9657c0-0.7356,0.211-1.4145,0.5544-2.0083L32.5222,13.005"/>
    <path fill="none" stroke="#000000" stroke-linecap="round" stroke-linejoin="round" stroke-miterlimit="10" stroke-width="2" d="M37.6129,47.2709c0,0.8907-0.7222,1.6129-1.6129,1.6129c-0.8907,0-1.6129-0.7222-1.6129-1.6129V23.8925 c0-0.8907,0.7222-1.6129,1.6129-1.6129c0.8907,0,1.6129,0.7222,1.6129,1.6129V47.2709z"/>
    <circle cx="36" cy="54.529" r="1.6129" fill="none" stroke="#000000" stroke-linecap="round" stroke-linejoin="round" stroke-miterlimit="10" stroke-width="2"/>
  </g>
</svg>
